Sources/FrostedUI/Resources/Icons.xcassets/rotateLeft32.imageset/rotate-left-32.svg

<svg width="32" height="32" viewBox="0 0 32 32" fill="none" xmlns="http://www.w3.org/2000/svg" data-fui-icon="true">
  <path
    d="M16.124 2.25C8.69433 2.25 4.95109 7.24416 3.75 11.3301V5.75C3.75 5.33579 3.41421 5 3 5C2.58579 5 2.25 5.33579 2.25 5.75V11.75C2.25 12.9857 3.24402 13.9998 4.48535 14H10.4287C10.8428 13.9999 11.1787 13.6642 11.1787 13.25C11.1787 12.8358 10.8428 12.5001 10.4287 12.5H4.99805C5.79184 8.7819 9.07482 3.75 16.124 3.75C23.5892 3.75011 28.25 9.3686 28.25 16C28.25 22.6314 23.5892 28.2499 16.124 28.25C11.0078 28.25 6.89001 25.234 5.0625 21.4258C4.8833 21.0523 4.43594 20.895 4.0625 21.0742C3.6891 21.2534 3.53181 21.7008 3.71094 22.0742C5.77394 26.3733 10.399 29.75 16.124 29.75C24.5062 29.7499 29.75 23.3685 29.75 16C29.75 8.63152 24.5062 2.25011 16.124 2.25Z"
    fill="currentColor"
  />
</svg>

<svg xmlns="http://www.w3.org/2000/svg" width="32" height="32" fill="none" data-fui-icon="true" viewBox="0 0 32 32"><path fill="currentColor" d="M16.124 2.25c-7.43 0-11.173 4.994-12.374 9.08V5.75a.75.75 0 0 0-1.5 0v6c0 1.236.994 2.25 2.235 2.25h5.944a.75.75 0 0 0 0-1.5H4.998c.794-3.718 4.077-8.75 11.126-8.75C23.589 3.75 28.25 9.369 28.25 16s-4.66 12.25-12.126 12.25c-5.116 0-9.234-3.016-11.061-6.824a.75.75 0 1 0-1.352.648c2.063 4.3 6.688 7.676 12.413 7.676 8.382 0 13.626-6.381 13.626-13.75S24.506 2.25 16.124 2.25"/></svg>
